img/icons-payable-taxes/09.svg

<svg width="48" height="50" viewBox="0 0 48 50" fill="none" xmlns="http://www.w3.org/2000/svg">
<path d="M47.8757 12.0575C47.7044 11.4149 47.2931 10.8776 46.7176 10.5445L29.2362 0.424025C28.26 -0.141228 27.0471 -0.14113 26.0709 0.424025L8.58952 10.5445C8.01392 10.8777 7.60268 11.415 7.43129 12.0575C7.25989 12.7001 7.34906 13.3709 7.68227 13.9463L8.3528 15.1046C8.68601 15.6801 9.22333 16.0914 9.86593 16.2627C10.0795 16.3196 10.2962 16.3479 10.5116 16.3479C10.9439 16.3479 11.3706 16.2342 11.7549 16.0118L12.1342 15.7922V19.3281H5.97089C2.69901 19.3281 0.0371094 21.99 0.0371094 25.2619V44.0662C0.0371094 47.3381 2.69901 50 5.97089 50H6.61446C7.01897 50 7.34691 49.6721 7.34691 49.2675C7.34691 48.863 7.01897 48.5351 6.61446 48.5351H5.97089C3.50675 48.5351 1.502 46.5303 1.502 44.0662V25.2619C1.502 22.7978 3.50675 20.793 5.97089 20.793H19.3707C21.8349 20.793 23.8396 22.7978 23.8396 25.2619V44.0662C23.8396 46.5303 21.8349 48.5351 19.3707 48.5351H9.54424C9.13974 48.5351 8.8118 48.863 8.8118 49.2675C8.8118 49.6721 9.13974 50 9.54424 50H19.3707C22.6426 50 25.3045 47.3381 25.3045 44.0662V36.6949H45.0385C45.443 36.6949 45.771 36.3669 45.771 35.9624V34.2905C45.771 32.6248 44.6793 31.21 43.1742 30.7219V21.5255C43.1742 21.121 42.8463 20.793 42.4417 20.793C42.0372 20.793 41.7093 21.121 41.7093 21.5255V30.5535C40.695 30.6364 39.7789 31.1209 39.1463 31.8751C38.4496 31.0445 37.4097 30.5394 36.2735 30.5394C35.1368 30.5394 34.0967 31.0445 33.3998 31.8752C32.7033 31.0447 31.6632 30.5394 30.5262 30.5394C29.3902 30.5394 28.3502 31.0446 27.6534 31.8751C27.0657 31.1743 26.233 30.7066 25.3044 30.5771V28.722H32.4394C34.0489 28.722 35.3584 27.4121 35.3584 25.802V16.622C35.3584 15.0125 34.0489 13.703 32.4394 13.703H22.8678C21.2583 13.703 19.9488 15.0125 19.9488 16.622V19.3567C19.7584 19.3383 19.5657 19.3281 19.3706 19.3281H13.599V14.9441L27.6535 6.80753L41.7093 14.9449V18.5958C41.7093 19.0003 42.0372 19.3282 42.4417 19.3282C42.8463 19.3282 43.1742 19.0003 43.1742 18.5958V15.793L43.5523 16.0119C44.1278 16.3451 44.7987 16.4341 45.4413 16.2629C46.0839 16.0916 46.6212 15.6803 46.9543 15.1048L47.6248 13.9465C47.9579 13.3708 48.0471 12.7001 47.8757 12.0575ZM25.2466 24.4426C25.1195 23.5274 24.7844 22.6778 24.2884 21.9449H26.9212V24.4426H25.2466ZM28.3861 21.9449H31.0791V24.4426H28.3861V21.9449ZM31.0791 20.48H28.3861V17.9825H31.0791V20.48ZM26.9212 20.48H24.2283V17.9825H26.9212V20.48ZM26.9559 33.5882C27.0534 33.8909 27.3349 34.0961 27.6529 34.0963H27.6532C27.9711 34.0963 28.2526 33.8912 28.3503 33.5887C28.6561 32.6411 29.5305 32.0044 30.5263 32.0044C31.523 32.0044 32.3974 32.6409 32.7023 33.5882C32.7997 33.8909 33.0812 34.0961 33.3992 34.0963H33.3995C33.7174 34.0963 33.9989 33.8912 34.0966 33.5887C34.4023 32.6411 35.2772 32.0044 36.2736 32.0044C37.2694 32.0044 38.144 32.6411 38.4496 33.5887C38.5473 33.8913 38.8288 34.0963 39.1467 34.0963H39.1469C39.4649 34.0962 39.7465 33.8909 39.8439 33.5882C40.1488 32.6409 41.0232 32.0044 42.0198 32.0044C43.2803 32.0044 44.306 33.03 44.306 34.2906V35.2301H25.3045V32.0653C26.0733 32.2447 26.706 32.8117 26.9559 33.5882ZM21.4137 16.6221C21.4137 15.8203 22.066 15.1679 22.8678 15.1679H32.4394C33.2412 15.1679 33.8935 15.8203 33.8935 16.6221V25.8021C33.8935 26.6044 33.2412 27.2572 32.4394 27.2572H25.3044V25.9075H31.8114C32.2159 25.9075 32.5439 25.5796 32.5439 25.1751V21.2144C32.5439 21.2137 32.544 21.2132 32.544 21.2126C32.544 21.212 32.5439 21.2113 32.5439 21.2107V17.2501C32.5439 16.8456 32.2159 16.5177 31.8114 16.5177H23.4958C23.0912 16.5177 22.7633 16.8456 22.7633 17.2501V20.3982C22.3486 20.108 21.8962 19.8685 21.4137 19.6909V16.6221ZM46.357 13.2124L45.6865 14.3707C45.5494 14.6075 45.3282 14.7768 45.0637 14.8473C44.7993 14.918 44.5231 14.8812 44.2862 14.744L28.0205 5.3274C27.907 5.26168 27.7803 5.22886 27.6535 5.22886C27.5267 5.22886 27.4 5.26168 27.2865 5.3274L11.0209 14.7441C10.784 14.8812 10.5078 14.918 10.2434 14.8474C9.97892 14.7769 9.75772 14.6076 9.62061 14.3707L8.95008 13.2125C8.81297 12.9756 8.77625 12.6995 8.84676 12.435C8.91727 12.1706 9.08661 11.9494 9.32343 11.8123L26.8048 1.69184C27.3283 1.3887 27.9787 1.3887 28.5022 1.69184L45.9836 11.8123C46.4726 12.0953 46.6401 12.7234 46.357 13.2124Z" fill="#007A65"/>
</svg>

<svg width="48" height="50" fill="none" xmlns="http://www.w3.org/2000/svg"><path d="M47.876 12.057a2.473 2.473 0 00-1.158-1.513L29.236.425a3.166 3.166 0 00-3.165 0L8.59 10.544a2.479 2.479 0 00-1.159 1.513 2.473 2.473 0 00.251 1.89l.67 1.158a2.506 2.506 0 002.159 1.243c.433 0 .86-.114 1.244-.336l.38-.22v3.536H5.97a5.94 5.94 0 00-5.934 5.934v18.804A5.94 5.94 0 005.971 50h.643a.732.732 0 100-1.465h-.643a4.474 4.474 0 01-4.469-4.469V25.262a4.474 4.474 0 014.469-4.469h13.4a4.474 4.474 0 014.469 4.469v18.804a4.474 4.474 0 01-4.47 4.47H9.545a.732.732 0 100 1.464h9.827a5.94 5.94 0 005.934-5.934v-7.371h19.733a.733.733 0 00.733-.733V34.29a3.757 3.757 0 00-2.597-3.568v-9.197a.732.732 0 10-1.465 0v9.029a3.737 3.737 0 00-2.563 1.321 3.74 3.74 0 00-2.873-1.336 3.742 3.742 0 00-2.873 1.336 3.741 3.741 0 00-2.874-1.336 3.741 3.741 0 00-2.873 1.336 3.735 3.735 0 00-2.349-1.298v-1.855h7.135c1.61 0 2.92-1.31 2.92-2.92v-9.18c0-1.61-1.31-2.919-2.92-2.919h-9.571a2.922 2.922 0 00-2.92 2.919v2.735a6.006 6.006 0 00-.577-.029H13.6v-4.384l14.055-8.136 14.055 8.137v3.65a.732.732 0 101.465 0v-2.802l.378.219a2.474 2.474 0 001.89.25 2.473 2.473 0 001.512-1.157l.67-1.159a2.474 2.474 0 00.252-1.889zm-22.63 12.386a5.899 5.899 0 00-.958-2.498h2.633v2.498h-1.674zm3.14-2.498h2.693v2.498h-2.693v-2.498zm2.693-1.465h-2.693v-2.497h2.693v2.497zm-4.158 0h-2.693v-2.497h2.693v2.497zm.035 13.108a.733.733 0 001.394 0 2.28 2.28 0 012.176-1.584c.997 0 1.871.637 2.176 1.584a.733.733 0 001.394 0 2.28 2.28 0 012.178-1.584c.995 0 1.87.637 2.176 1.585a.732.732 0 001.394 0 2.278 2.278 0 012.176-1.585 2.289 2.289 0 012.286 2.287v.94H25.305v-3.166c.768.18 1.401.747 1.65 1.523zm-5.542-16.966c0-.802.652-1.454 1.454-1.454h9.571c.802 0 1.455.652 1.455 1.454v9.18c0 .802-.653 1.455-1.455 1.455h-7.135v-1.35h6.507a.732.732 0 00.733-.732V17.25a.732.732 0 00-.733-.733h-8.315a.732.732 0 00-.733.732v3.148a5.923 5.923 0 00-1.35-.707v-3.069zm24.943-3.41l-.67 1.159a1.018 1.018 0 01-.623.476c-.265.071-.54.034-.778-.103L28.02 5.327a.732.732 0 00-.733 0L11.02 14.744a1.018 1.018 0 01-.778.103 1.018 1.018 0 01-.622-.476l-.67-1.159a1.018 1.018 0 01-.104-.777c.07-.264.24-.486.476-.623l17.482-10.12a1.698 1.698 0 011.697 0l17.482 10.12c.489.283.656.911.373 1.4z" fill="#007A65"/></svg>
